ligands/bidentate/phenanthroline.svg

<svg height="256" viewBox="0 0 256 256" width="256" xmlns="http://www.w3.org/2000/svg"><path d="m0 0h256v256h-256z" fill="#fff"/><ellipse cx="168.5" cy="56.9" fill="#ff7f7f" fill-rule="evenodd" rx="15.9" ry="15.9" stroke="#ff7f7f"/><g fill="none" stroke="#000" stroke-width="2"><path d="m150.8 140.9.1 53.1"/><path d="m158.9 145.6.1 43.7"/><path d="m150.9 194 46 26.4"/><path d="m196.9 220.4 45.9-26.6"/><path d="m196.9 211 37.8-21.9"/><path d="m242.8 193.8-.1-53"/><path d="m242.7 140.8-34.7-20"/><path d="m234.6 145.5-30.6-17.6"/><path d="m104.7 79.2.1 35.3"/><path d="m112.9 79.1v30.7"/><path d="m104.8 114.5-45.9 26.6"/><path d="m58.9 141.1.1 53.1"/><path d="m59 194.2 46 26.4"/><path d="m67.1 189.4 37.9 21.8"/><path d="m58.9 141.1-46-26.4"/><path d="m58.9 131.7-37.9-21.7"/><path d="m12.9 114.7-.1-53.1"/><path d="m12.8 61.6 45.9-26.6"/><path d="m20.9 66.3 37.8-21.9"/><path d="m185.3 120.9-34.5 20"/><path d="m104.8 114.5 46 26.4"/><path d="m105 220.6 45.9-26.6"/><path d="m58.7 35 34.6 19.9"/><path d="m191.1 103-13.9-28.4"/><path d="m116 60.6 41.1-2.9"/><path d="m194.6 219.1 2.3 1.3 2.3-1.3" stroke-miterlimit="10"/><path d="m240.5 195.1 2.3-1.3v-2.6" stroke-miterlimit="10"/><path d="m242.7 143.4v-2.6l-1.7-1" stroke-miterlimit="10"/><path d="m59 191.5v2.7l2.3 1.3" stroke-miterlimit="10"/><path d="m102.7 219.3 2.3 1.3 2.3-1.3" stroke-miterlimit="10"/><path d="m15.2 116-2.3-1.3v-2.7" stroke-miterlimit="10"/><path d="m12.8 64.3v-2.7l2.3-1.3" stroke-miterlimit="10"/><path d="m56.4 36.3 2.3-1.3 1.7 1" stroke-miterlimit="10"/></g><text font-family="sans-serif" font-size="31" x="187.1" y="130.2">N</text><text x="158.9" y="72.8"/><text font-family="sans-serif" font-size="31" x="95.1" y="77.4">N</text></svg>

<?xml version='1.0' encoding='iso-8859-1'?>
<svg version='1.1' baseProfile='full'
              xmlns='http://www.w3.org/2000/svg'
                      xmlns:rdkit='http://www.rdkit.org/xml'
                      xmlns:xlink='http://www.w3.org/1999/xlink'
                  xml:space='preserve'
width='256px' height='256px' viewBox='0 0 256 256'>
<!-- END OF HEADER -->
<rect style='opacity:1.0;fill:#FFFFFF;stroke:none' width='256.0' height='256.0' x='0.0' y='0.0'> </rect>
<ellipse cx='168.5' cy='56.9' rx='15.9' ry='15.9' class='atom-6'  style='fill:#FF7F7F;fill-rule:evenodd;stroke:#FF7F7F;stroke-width:1.0px;stroke-linecap:butt;stroke-linejoin:miter;stroke-opacity:1' />
<path class='bond-0 atom-0 atom-1' d='M 150.8,140.9 L 150.9,194.0' style='fill:none;fill-rule:evenodd;stroke:#000000;stroke-width:2.0px;stroke-linecap:butt;stroke-linejoin:miter;stroke-opacity:1' />
<path class='bond-0 atom-0 atom-1' d='M 158.9,145.6 L 159.0,189.3' style='fill:none;fill-rule:evenodd;stroke:#000000;stroke-width:2.0px;stroke-linecap:butt;stroke-linejoin:miter;stroke-opacity:1' />
<path class='bond-1 atom-1 atom-2' d='M 150.9,194.0 L 196.9,220.4' style='fill:none;fill-rule:evenodd;stroke:#000000;stroke-width:2.0px;stroke-linecap:butt;stroke-linejoin:miter;stroke-opacity:1' />
<path class='bond-2 atom-2 atom-3' d='M 196.9,220.4 L 242.8,193.8' style='fill:none;fill-rule:evenodd;stroke:#000000;stroke-width:2.0px;stroke-linecap:butt;stroke-linejoin:miter;stroke-opacity:1' />
<path class='bond-2 atom-2 atom-3' d='M 196.9,211.0 L 234.7,189.1' style='fill:none;fill-rule:evenodd;stroke:#000000;stroke-width:2.0px;stroke-linecap:butt;stroke-linejoin:miter;stroke-opacity:1' />
<path class='bond-3 atom-3 atom-4' d='M 242.8,193.8 L 242.7,140.8' style='fill:none;fill-rule:evenodd;stroke:#000000;stroke-width:2.0px;stroke-linecap:butt;stroke-linejoin:miter;stroke-opacity:1' />
<path class='bond-4 atom-4 atom-5' d='M 242.7,140.8 L 208.0,120.8' style='fill:none;fill-rule:evenodd;stroke:#000000;stroke-width:2.0px;stroke-linecap:butt;stroke-linejoin:miter;stroke-opacity:1' />
<path class='bond-4 atom-4 atom-5' d='M 234.6,145.5 L 204.0,127.9' style='fill:none;fill-rule:evenodd;stroke:#000000;stroke-width:2.0px;stroke-linecap:butt;stroke-linejoin:miter;stroke-opacity:1' />
<path class='bond-5 atom-7 atom-8' d='M 104.7,79.2 L 104.8,114.5' style='fill:none;fill-rule:evenodd;stroke:#000000;stroke-width:2.0px;stroke-linecap:butt;stroke-linejoin:miter;stroke-opacity:1' />
<path class='bond-5 atom-7 atom-8' d='M 112.9,79.1 L 112.9,109.8' style='fill:none;fill-rule:evenodd;stroke:#000000;stroke-width:2.0px;stroke-linecap:butt;stroke-linejoin:miter;stroke-opacity:1' />
<path class='bond-6 atom-8 atom-9' d='M 104.8,114.5 L 58.9,141.1' style='fill:none;fill-rule:evenodd;stroke:#000000;stroke-width:2.0px;stroke-linecap:butt;stroke-linejoin:miter;stroke-opacity:1' />
<path class='bond-7 atom-9 atom-10' d='M 58.9,141.1 L 59.0,194.2' style='fill:none;fill-rule:evenodd;stroke:#000000;stroke-width:2.0px;stroke-linecap:butt;stroke-linejoin:miter;stroke-opacity:1' />
<path class='bond-8 atom-10 atom-11' d='M 59.0,194.2 L 105.0,220.6' style='fill:none;fill-rule:evenodd;stroke:#000000;stroke-width:2.0px;stroke-linecap:butt;stroke-linejoin:miter;stroke-opacity:1' />
<path class='bond-8 atom-10 atom-11' d='M 67.1,189.4 L 105.0,211.2' style='fill:none;fill-rule:evenodd;stroke:#000000;stroke-width:2.0px;stroke-linecap:butt;stroke-linejoin:miter;stroke-opacity:1' />
<path class='bond-9 atom-9 atom-12' d='M 58.9,141.1 L 12.9,114.7' style='fill:none;fill-rule:evenodd;stroke:#000000;stroke-width:2.0px;stroke-linecap:butt;stroke-linejoin:miter;stroke-opacity:1' />
<path class='bond-9 atom-9 atom-12' d='M 58.9,131.7 L 21.0,110.0' style='fill:none;fill-rule:evenodd;stroke:#000000;stroke-width:2.0px;stroke-linecap:butt;stroke-linejoin:miter;stroke-opacity:1' />
<path class='bond-10 atom-12 atom-13' d='M 12.9,114.7 L 12.8,61.6' style='fill:none;fill-rule:evenodd;stroke:#000000;stroke-width:2.0px;stroke-linecap:butt;stroke-linejoin:miter;stroke-opacity:1' />
<path class='bond-11 atom-13 atom-14' d='M 12.8,61.6 L 58.7,35.0' style='fill:none;fill-rule:evenodd;stroke:#000000;stroke-width:2.0px;stroke-linecap:butt;stroke-linejoin:miter;stroke-opacity:1' />
<path class='bond-11 atom-13 atom-14' d='M 20.9,66.3 L 58.7,44.4' style='fill:none;fill-rule:evenodd;stroke:#000000;stroke-width:2.0px;stroke-linecap:butt;stroke-linejoin:miter;stroke-opacity:1' />
<path class='bond-12 atom-5 atom-0' d='M 185.3,120.9 L 150.8,140.9' style='fill:none;fill-rule:evenodd;stroke:#000000;stroke-width:2.0px;stroke-linecap:butt;stroke-linejoin:miter;stroke-opacity:1' />
<path class='bond-13 atom-8 atom-0' d='M 104.8,114.5 L 150.8,140.9' style='fill:none;fill-rule:evenodd;stroke:#000000;stroke-width:2.0px;stroke-linecap:butt;stroke-linejoin:miter;stroke-opacity:1' />
<path class='bond-14 atom-11 atom-1' d='M 105.0,220.6 L 150.9,194.0' style='fill:none;fill-rule:evenodd;stroke:#000000;stroke-width:2.0px;stroke-linecap:butt;stroke-linejoin:miter;stroke-opacity:1' />
<path class='bond-15 atom-14 atom-7' d='M 58.7,35.0 L 93.3,54.9' style='fill:none;fill-rule:evenodd;stroke:#000000;stroke-width:2.0px;stroke-linecap:butt;stroke-linejoin:miter;stroke-opacity:1' />
<path class='bond-16 atom-5 atom-6' d='M 191.1,103.0 L 177.2,74.6' style='fill:none;fill-rule:evenodd;stroke:#000000;stroke-width:2.0px;stroke-linecap:butt;stroke-linejoin:miter;stroke-opacity:1' />
<path class='bond-17 atom-7 atom-6' d='M 116.0,60.6 L 157.1,57.7' style='fill:none;fill-rule:evenodd;stroke:#000000;stroke-width:2.0px;stroke-linecap:butt;stroke-linejoin:miter;stroke-opacity:1' />
<path d='M 194.6,219.1 L 196.9,220.4 L 199.2,219.1' style='fill:none;stroke:#000000;stroke-width:2.0px;stroke-linecap:butt;stroke-linejoin:miter;stroke-miterlimit:10;stroke-opacity:1;' />
<path d='M 240.5,195.1 L 242.8,193.8 L 242.8,191.2' style='fill:none;stroke:#000000;stroke-width:2.0px;stroke-linecap:butt;stroke-linejoin:miter;stroke-miterlimit:10;stroke-opacity:1;' />
<path d='M 242.7,143.4 L 242.7,140.8 L 241.0,139.8' style='fill:none;stroke:#000000;stroke-width:2.0px;stroke-linecap:butt;stroke-linejoin:miter;stroke-miterlimit:10;stroke-opacity:1;' />
<path d='M 59.0,191.5 L 59.0,194.2 L 61.3,195.5' style='fill:none;stroke:#000000;stroke-width:2.0px;stroke-linecap:butt;stroke-linejoin:miter;stroke-miterlimit:10;stroke-opacity:1;' />
<path d='M 102.7,219.3 L 105.0,220.6 L 107.3,219.3' style='fill:none;stroke:#000000;stroke-width:2.0px;stroke-linecap:butt;stroke-linejoin:miter;stroke-miterlimit:10;stroke-opacity:1;' />
<path d='M 15.2,116.0 L 12.9,114.7 L 12.9,112.0' style='fill:none;stroke:#000000;stroke-width:2.0px;stroke-linecap:butt;stroke-linejoin:miter;stroke-miterlimit:10;stroke-opacity:1;' />
<path d='M 12.8,64.3 L 12.8,61.6 L 15.1,60.3' style='fill:none;stroke:#000000;stroke-width:2.0px;stroke-linecap:butt;stroke-linejoin:miter;stroke-miterlimit:10;stroke-opacity:1;' />
<path d='M 56.4,36.3 L 58.7,35.0 L 60.4,36.0' style='fill:none;stroke:#000000;stroke-width:2.0px;stroke-linecap:butt;stroke-linejoin:miter;stroke-miterlimit:10;stroke-opacity:1;' />
<text x='187.1' y='130.2' class='atom-5' style='font-size:31px;font-style:normal;font-weight:normal;fill-opacity:1;stroke:none;font-family:sans-serif;text-anchor:start;fill:#000000' >N</text>
<text x='158.9' y='72.8' class='atom-6' style='font-size:31px;font-style:normal;font-weight:normal;fill-opacity:1;stroke:none;font-family:sans-serif;text-anchor:start;fill:#000000' ></text>
<text x='95.1' y='77.4' class='atom-7' style='font-size:31px;font-style:normal;font-weight:normal;fill-opacity:1;stroke:none;font-family:sans-serif;text-anchor:start;fill:#000000' >N</text>
</svg>
